; G-Code generated by Simplify3D(R) Version 4.0.0
; Apr 27, 2020 at 6:46:26 PM
; Settings Summary
;   processName,Process1
;   applyToModels,CHEP_bed_level_test
;   profileName,FF CR-10 (modified)
;   profileVersion,2019-10-28 18:07:40
;   baseProfile,Creality CR-10(2)
;   printMaterial,PLA
;   printQuality,Fast
;   printExtruders,
;   extruderName,Primary Extruder
;   extruderToolheadNumber,0
;   extruderDiameter,0.4
;   extruderAutoWidth,1
;   extruderWidth,0.48
;   extrusionMultiplier,0.98
;   extruderUseRetract,1
;   extruderRetractionDistance,4.1
;   extruderExtraRestartDistance,0.2
;   extruderRetractionZLift,0.2
;   extruderRetractionSpeed,3600
;   extruderUseCoasting,0
;   extruderCoastingDistance,0.2
;   extruderUseWipe,1
;   extruderWipeDistance,3.2
;   primaryExtruder,0
;   layerHeight,0.28
;   topSolidLayers,4
;   bottomSolidLayers,3
;   perimeterOutlines,2
;   printPerimetersInsideOut,1
;   startPointOption,3
;   startPointOriginX,0
;   startPointOriginY,500
;   sequentialIslands,0
;   spiralVaseMode,0
;   firstLayerHeightPercentage,120
;   firstLayerWidthPercentage,120
;   firstLayerUnderspeed,0.5
;   useRaft,0
;   raftExtruder,0
;   raftTopLayers,3
;   raftBaseLayers,2
;   raftOffset,3
;   raftSeparationDistance,0.14
;   raftTopInfill,100
;   aboveRaftSpeedMultiplier,0.3
;   useSkirt,0
;   skirtExtruder,0
;   skirtLayers,1
;   skirtOutlines,3
;   skirtOffset,4
;   usePrimePillar,0
;   primePillarExtruder,999
;   primePillarWidth,12
;   primePillarLocation,7
;   primePillarSpeedMultiplier,1
;   useOozeShield,0
;   oozeShieldExtruder,999
;   oozeShieldOffset,2
;   oozeShieldOutlines,1
;   oozeShieldSidewallShape,1
;   oozeShieldSidewallAngle,30
;   oozeShieldSpeedMultiplier,1
;   infillExtruder,0
;   internalInfillPattern,Rectilinear
;   externalInfillPattern,Rectilinear
;   infillPercentage,15
;   outlineOverlapPercentage,15
;   infillExtrusionWidthPercentage,120
;   minInfillLength,5
;   infillLayerInterval,1
;   internalInfillAngles,45,-45
;   overlapInternalInfillAngles,0
;   externalInfillAngles,45,-45
;   generateSupport,0
;   supportExtruder,0
;   supportInfillPercentage,25
;   supportExtraInflation,0
;   supportBaseLayers,3
;   denseSupportExtruder,0
;   denseSupportLayers,3
;   denseSupportInfillPercentage,70
;   supportLayerInterval,1
;   supportHorizontalPartOffset,0.1
;   supportUpperSeparationLayers,2
;   supportLowerSeparationLayers,3
;   supportType,1
;   supportGridSpacing,4
;   maxOverhangAngle,60
;   supportAngles,0
;   temperatureName,Primary Extruder,Heated Bed
;   temperatureNumber,0,0
;   temperatureSetpointCount,2,1
;   temperatureSetpointLayers,1,2,1
;   temperatureSetpointTemperatures,215,210,60
;   temperatureStabilizeAtStartup,1,1
;   temperatureHeatedBed,0,1
;   temperatureRelayBetweenLayers,0,0
;   temperatureRelayBetweenLoops,0,0
;   fanLayers,1,2,3,4
;   fanSpeeds,0,40,75,100
;   blipFanToFullPower,1
;   adjustSpeedForCooling,1
;   minSpeedLayerTime,15
;   minCoolingSpeedSlowdown,20
;   increaseFanForCooling,1
;   minFanLayerTime,45
;   maxCoolingFanSpeed,100
;   increaseFanForBridging,1
;   bridgingFanSpeed,100
;   useFixedBridgingAngle,0
;   fixedBridgingAngle,0
;   applyBridgingToPerimeters,1
;   use5D,1
;   relativeEdistances,0
;   allowEaxisZeroing,1
;   independentExtruderAxes,0
;   includeM10123,0
;   stickySupport,1
;   applyToolheadOffsets,0
;   gcodeXoffset,0
;   gcodeYoffset,0
;   gcodeZoffset,0
;   overrideMachineDefinition,1
;   machineTypeOverride,0
;   strokeXoverride,300
;   strokeYoverride,300
;   strokeZoverride,400
;   originOffsetXoverride,0
;   originOffsetYoverride,0
;   originOffsetZoverride,0
;   homeXdirOverride,-1
;   homeYdirOverride,-1
;   homeZdirOverride,-1
;   flipXoverride,1
;   flipYoverride,-1
;   flipZoverride,1
;   toolheadOffsets,0,0|0,0|0,0|0,0|0,0|0,0
;   overrideFirmwareConfiguration,1
;   firmwareTypeOverride,RepRap (Marlin/Repetier/Sprinter)
;   GPXconfigOverride,r2
;   baudRateOverride,115200
;   overridePrinterModels,1
;   printerModelsOverride
;   startingGcode,G28 ; home all axes,M117 Purge extruder,G92 E0 ; reset extruder,G1 Z1.0 F3000 ; move z up little to prevent scratching of surface,G1 X0.1 Y20 Z0.3 F5000.0 ; move to start-line position,G1 X0.1 Y200.0 Z0.3 F1500.0 E15 ; draw 1st line,G1 X0.4 Y200.0 Z0.3 F5000.0 ; move to side a little,G1 X0.4 Y20 Z0.3 F1500.0 E30 ; draw 2nd line,; G1 E27 F3000 ; retract filament 3mm,G92 E0 ; reset extruder,; done purging extruder,G1 Z1.0 F3000 ; move z up little to prevent scratching of surface,M117 Filament Friday
;   layerChangeGcode,
;   retractionGcode,
;   toolChangeGcode,
;   endingGcode,M104 S0; turn off extruder,M140 S0 ; turn off bed,G1 X0 Y300 F1000 ; prepare for part removal,M84 ; disable motors,M106 S0 ; turn off fan,,M300 S294 P200 ;D4: 294,M300 S588 P200 ;D5: 588,M300 S440 P200 ;A4: 440,M300 S392 P200 ;G4: 392,M300 S784 P200 ;G5: 784,M300 S440 P200 ;A4: 440,M300 S740 P200 ;F#5: 740,M300 S440 P200 ;A4: 440
;   exportFileFormat,gcode
;   celebration,0
;   celebrationSong,Star Wars
;   postProcessing,
;   defaultSpeed,3600
;   outlineUnderspeed,0.5
;   solidInfillUnderspeed,0.8
;   supportUnderspeed,0.8
;   rapidXYspeed,7200
;   rapidZspeed,1002
;   minBridgingArea,50
;   bridgingExtraInflation,0
;   bridgingExtrusionMultiplier,1
;   bridgingSpeedMultiplier,1
;   filamentDiameters,1.75|1.75|1.75|1.75|1.75|1.75
;   filamentPricesPerKg,17.99|46|46|46|46|46
;   filamentDensities,1.25|1.25|1.25|1.25|1.25|1.25
;   useMinPrintHeight,0
;   minPrintHeight,5
;   useMaxPrintHeight,0
;   maxPrintHeight,22.3
;   useDiaphragm,0
;   diaphragmLayerInterval,20
;   robustSlicing,1
;   mergeAllIntoSolid,0
;   onlyRetractWhenCrossingOutline,0
;   retractBetweenLayers,1
;   useRetractionMinTravel,1
;   retractionMinTravel,3
;   retractWhileWiping,1
;   onlyWipeOutlines,1
;   avoidCrossingOutline,1
;   maxMovementDetourFactor,3
;   toolChangeRetractionDistance,12
;   toolChangeExtraRestartDistance,-0.5
;   toolChangeRetractionSpeed,600
;   thinWallAllowedOverlapPercentage,30
;   externalThinWallType,1
;   internalThinWallType,1
;   singleExtrusionMinLength,0.2
;   singleExtrusionMinPrintingWidthPercentage,50
;   singleExtrusionMaxPrintingWidthPercentage,200
;   singleExtrusionEndpointExtension,0.2
;   horizontalSizeCompensation,0
G90
M82
M106 S255
G4 P500
M106 S0
M140 S60
M190 S60
M104 S215 T0
M109 S215 T0
G28 ; home all axes
M117 Purge extruder
G92 E0 ; reset extruder
G1 Z1.0 F3000 ; move z up little to prevent scratching of surface
G1 X0.1 Y20 Z0.3 F5000.0 ; move to start-line position
G1 X0.1 Y200.0 Z0.3 F1500.0 E15 ; draw 1st line
G1 X0.4 Y200.0 Z0.3 F5000.0 ; move to side a little
G1 X0.4 Y20 Z0.3 F1500.0 E30 ; draw 2nd line
; G1 E27 F3000 ; retract filament 3mm
G92 E0 ; reset extruder
; done purging extruder
G1 Z1.0 F3000 ; move z up little to prevent scratching of surface
M117 Filament Friday
G92 E0
G1 E-4.1000 F3600
G1 Z0.536 F1002
; process Process1
; layer 1, Z = 0.336
T0
; tool H0.336 W0.576
; external single extrusion
G1 X25.573 Y25.454 F7200
G1 Z0.336 F1002
G1 E0.2000 F1080
G92 E0
; tool H0.336 W0.889
G1 X25.669 Y25.430 E0.0120 F900
; tool H0.336 W0.852
G1 X25.765 Y25.417 E0.0233
; tool H0.336 W0.836
G1 X25.861 Y25.414 E0.0343
; tool H0.336 W0.833
G1 X274.043 Y25.414 E28.3480
; tool H0.336 W0.861
G1 X274.546 Y25.573 E28.4102
; tool H0.336 W0.889
G1 X274.570 Y25.669 E28.4223
; tool H0.336 W0.852
G1 X274.583 Y25.765 E28.4336
; tool H0.336 W0.836
G1 X274.586 Y25.861 E28.4445
; tool H0.336 W0.833
G1 X274.586 Y274.139 E56.7702
; tool H0.336 W0.836
G1 X274.583 Y274.235 E56.7812
; tool H0.336 W0.852
G1 X274.570 Y274.331 E56.7925
; tool H0.336 W0.889
G1 X274.546 Y274.427 E56.8045
; tool H0.336 W0.913
G1 X274.427 Y274.546 E56.8256
; tool H0.336 W0.889
G1 X274.331 Y274.570 E56.8376
; tool H0.336 W0.852
G1 X274.235 Y274.583 E56.8489
; tool H0.336 W0.836
G1 X274.139 Y274.586 E56.8599
; tool H0.336 W0.833
G1 X25.861 Y274.586 E85.1856
; tool H0.336 W0.836
G1 X25.765 Y274.583 E85.1966
; tool H0.336 W0.852
G1 X25.669 Y274.570 E85.2078
; tool H0.336 W0.889
G1 X25.573 Y274.546 E85.2199
; tool H0.336 W0.913
G1 X25.454 Y274.427 E85.2410
; tool H0.336 W0.889
G1 X25.430 Y274.331 E85.2530
; tool H0.336 W0.852
G1 X25.417 Y274.235 E85.2643
; tool H0.336 W0.836
G1 X25.414 Y274.139 E85.2753
; tool H0.336 W0.833
G1 X25.414 Y25.861 E113.5999
; tool H0.336 W0.836
G1 X25.417 Y25.765 E113.6109
; tool H0.336 W0.852
G1 X25.430 Y25.669 E113.6222
; tool H0.336 W0.889
G1 X25.454 Y25.573 E113.6343
; tool H0.336 W0.913
G1 X25.573 Y25.454 E113.6554
G92 E0
G1 E-4.1000 F3600
G1 Z0.536 F1002
; tool H0.336 W0.576
G1 X41.947 Y41.947 F7200
G1 X42.066 Y41.947 F7200
G1 X42.241 Y42.121 F7200
G1 Z0.336 F1002
G1 E0.2000 F3600
G92 E0
; tool H0.336 W0.889
G1 X42.337 Y42.097 E0.0120 F900
; tool H0.336 W0.852
G1 X42.433 Y42.084 E0.0233
; tool H0.336 W0.836
G1 X42.529 Y42.081 E0.0343
; tool H0.336 W0.833
G1 X257.376 Y42.081 E24.5453
; tool H0.336 W0.861
G1 X257.879 Y42.240 E24.6076
; tool H0.336 W0.889
G1 X257.903 Y42.336 E24.6196
; tool H0.336 W0.852
G1 X257.916 Y42.432 E24.6309
; tool H0.336 W0.836
G1 X257.919 Y42.528 E24.6419
; tool H0.336 W0.833
G1 X257.919 Y257.472 E49.1645
; tool H0.336 W0.836
G1 X257.916 Y257.568 E49.1755
; tool H0.336 W0.852
G1 X257.903 Y257.664 E49.1868
; tool H0.336 W0.889
G1 X257.879 Y257.760 E49.1988
; tool H0.336 W0.913
G1 X257.760 Y257.879 E49.2200
; tool H0.336 W0.889
G1 X257.664 Y257.903 E49.2320
; tool H0.336 W0.852
G1 X257.568 Y257.916 E49.2433
; tool H0.336 W0.836
G1 X257.472 Y257.919 E49.2543
; tool H0.336 W0.833
G1 X42.529 Y257.919 E73.7768
; tool H0.336 W0.836
G1 X42.433 Y257.916 E73.7878
; tool H0.336 W0.852
G1 X42.337 Y257.903 E73.7991
; tool H0.336 W0.889
G1 X42.241 Y257.879 E73.8112
; tool H0.336 W0.913
G1 X42.121 Y257.760 E73.8323
; tool H0.336 W0.889
G1 X42.097 Y257.664 E73.8443
; tool H0.336 W0.852
G1 X42.084 Y257.568 E73.8556
; tool H0.336 W0.836
G1 X42.081 Y257.472 E73.8666
; tool H0.336 W0.833
G1 X42.081 Y42.528 E98.3880
; tool H0.336 W0.836
G1 X42.084 Y42.432 E98.3990
; tool H0.336 W0.852
G1 X42.097 Y42.336 E98.4103
; tool H0.336 W0.889
G1 X42.121 Y42.240 E98.4223
; tool H0.336 W0.913
G1 X42.241 Y42.121 E98.4435
G92 E0
G1 E-4.1000 F3600
G1 Z0.536 F1002
; tool H0.336 W0.576
G1 X58.614 Y58.614 F7200
G1 X58.733 Y58.614 F7200
G1 X58.907 Y58.788 F7200
G1 Z0.336 F1002
G1 E0.2000 F3600
G92 E0
; tool H0.336 W0.889
G1 X59.003 Y58.764 E0.0120 F900
; tool H0.336 W0.852
G1 X59.099 Y58.751 E0.0233
; tool H0.336 W0.836
G1 X59.195 Y58.748 E0.0343
; tool H0.336 W0.833
G1 X240.805 Y58.748 E20.7536
; tool H0.336 W0.836
G1 X240.901 Y58.751 E20.7646
; tool H0.336 W0.852
G1 X240.997 Y58.764 E20.7759
; tool H0.336 W0.889
G1 X241.093 Y58.788 E20.7880
; tool H0.336 W0.913
G1 X241.212 Y58.907 E20.8091
; tool H0.336 W0.889
G1 X241.236 Y59.003 E20.8211
; tool H0.336 W0.852
G1 X241.249 Y59.099 E20.8324
; tool H0.336 W0.836
G1 X241.252 Y59.195 E20.8434
; tool H0.336 W0.833
G1 X241.252 Y240.709 E41.5517
; tool H0.336 W0.861
G1 X241.093 Y241.212 E41.6140
; tool H0.336 W0.889
G1 X240.997 Y241.236 E41.6260
; tool H0.336 W0.852
G1 X240.901 Y241.249 E41.6373
; tool H0.336 W0.836
G1 X240.805 Y241.252 E41.6483
; tool H0.336 W0.833
G1 X59.195 Y241.252 E62.3676
; tool H0.336 W0.836
G1 X59.099 Y241.249 E62.3786
; tool H0.336 W0.852
G1 X59.003 Y241.236 E62.3899
; tool H0.336 W0.889
G1 X58.907 Y241.212 E62.4019
; tool H0.336 W0.913
G1 X58.788 Y241.093 E62.4231
; tool H0.336 W0.889
G1 X58.764 Y240.997 E62.4351
; tool H0.336 W0.852
G1 X58.751 Y240.901 E62.4464
; tool H0.336 W0.836
G1 X58.748 Y240.805 E62.4574
; tool H0.336 W0.833
G1 X58.748 Y59.195 E83.1767
; tool H0.336 W0.836
G1 X58.751 Y59.099 E83.1877
; tool H0.336 W0.852
G1 X58.764 Y59.003 E83.1990
; tool H0.336 W0.889
G1 X58.788 Y58.907 E83.2110
; tool H0.336 W0.913
G1 X58.907 Y58.788 E83.2321
G92 E0
G1 E-4.1000 F3600
G1 Z0.536 F1002
; tool H0.336 W0.576
G1 X75.281 Y75.281 F7200
G1 X75.400 Y75.281 F7200
G1 X75.574 Y75.455 F7200
G1 Z0.336 F1002
G1 E0.2000 F3600
G92 E0
; tool H0.336 W0.889
G1 X75.670 Y75.431 E0.0120 F900
; tool H0.336 W0.852
G1 X75.766 Y75.418 E0.0233
; tool H0.336 W0.836
G1 X75.862 Y75.415 E0.0343
; tool H0.336 W0.833
G1 X224.138 Y75.415 E16.9501
; tool H0.336 W0.836
G1 X224.234 Y75.418 E16.9610
; tool H0.336 W0.852
G1 X224.330 Y75.431 E16.9723
; tool H0.336 W0.889
G1 X224.426 Y75.455 E16.9844
; tool H0.336 W0.913
G1 X224.545 Y75.574 E17.0055
; tool H0.336 W0.889
G1 X224.569 Y75.670 E17.0175
; tool H0.336 W0.852
G1 X224.582 Y75.766 E17.0288
; tool H0.336 W0.836
G1 X224.585 Y75.862 E17.0398
; tool H0.336 W0.833
G1 X224.585 Y224.138 E33.9549
; tool H0.336 W0.836
G1 X224.582 Y224.234 E33.9659
; tool H0.336 W0.852
G1 X224.569 Y224.330 E33.9772
; tool H0.336 W0.889
G1 X224.545 Y224.426 E33.9892
; tool H0.336 W0.913
G1 X224.426 Y224.545 E34.0103
; tool H0.336 W0.889
G1 X224.330 Y224.569 E34.0224
; tool H0.336 W0.852
G1 X224.234 Y224.582 E34.0337
; tool H0.336 W0.836
G1 X224.138 Y224.585 E34.0447
; tool H0.336 W0.833
G1 X75.958 Y224.585 E50.9488
; tool H0.336 W0.861
G1 X75.455 Y224.426 E51.0111
; tool H0.336 W0.889
G1 X75.431 Y224.330 E51.0231
; tool H0.336 W0.852
G1 X75.418 Y224.234 E51.0344
; tool H0.336 W0.836
G1 X75.415 Y224.138 E51.0454
; tool H0.336 W0.833
G1 X75.415 Y75.862 E67.9611
; tool H0.336 W0.836
G1 X75.418 Y75.766 E67.9721
; tool H0.336 W0.852
G1 X75.431 Y75.670 E67.9834
; tool H0.336 W0.889
G1 X75.455 Y75.574 E67.9954
; tool H0.336 W0.913
G1 X75.574 Y75.455 E68.0165
G92 E0
G1 E-4.1000 F3600
G1 Z0.536 F1002
; tool H0.336 W0.576
G1 X91.948 Y91.948 F7200
G1 X92.067 Y91.948 F7200
G1 X92.241 Y92.122 F7200
G1 Z0.336 F1002
G1 E0.2000 F3600
G92 E0
; tool H0.336 W0.889
G1 X92.337 Y92.098 E0.0120 F900
; tool H0.336 W0.852
G1 X92.433 Y92.085 E0.0233
; tool H0.336 W0.836
G1 X92.529 Y92.082 E0.0343
; tool H0.336 W0.833
G1 X207.471 Y92.082 E13.1474
; tool H0.336 W0.836
G1 X207.567 Y92.085 E13.1584
; tool H0.336 W0.852
G1 X207.663 Y92.098 E13.1697
; tool H0.336 W0.889
G1 X207.759 Y92.122 E13.1817
; tool H0.336 W0.913
G1 X207.878 Y92.241 E13.2028
; tool H0.336 W0.889
G1 X207.902 Y92.337 E13.2148
; tool H0.336 W0.852
G1 X207.915 Y92.433 E13.2261
; tool H0.336 W0.836
G1 X207.918 Y92.529 E13.2371
; tool H0.336 W0.833
G1 X207.918 Y207.471 E26.3497
; tool H0.336 W0.836
G1 X207.915 Y207.567 E26.3607
; tool H0.336 W0.852
G1 X207.902 Y207.663 E26.3720
; tool H0.336 W0.889
G1 X207.878 Y207.759 E26.3840
; tool H0.336 W0.913
G1 X207.759 Y207.878 E26.4051
; tool H0.336 W0.889
G1 X207.663 Y207.902 E26.4172
; tool H0.336 W0.852
G1 X207.567 Y207.915 E26.4284
; tool H0.336 W0.836
G1 X207.471 Y207.918 E26.4394
; tool H0.336 W0.833
G1 X92.625 Y207.918 E39.5411
; tool H0.336 W0.861
G1 X92.122 Y207.759 E39.6033
; tool H0.336 W0.889
G1 X92.098 Y207.663 E39.6153
; tool H0.336 W0.852
G1 X92.085 Y207.567 E39.6266
; tool H0.336 W0.836
G1 X92.082 Y207.471 E39.6376
; tool H0.336 W0.833
G1 X92.082 Y92.529 E52.7507
; tool H0.336 W0.836
G1 X92.085 Y92.433 E52.7617
; tool H0.336 W0.852
G1 X92.098 Y92.337 E52.7730
; tool H0.336 W0.889
G1 X92.122 Y92.241 E52.7850
; tool H0.336 W0.913
G1 X92.241 Y92.122 E52.8061
G92 E0
G1 E-4.1000 F3600
G1 Z0.536 F1002
; tool H0.336 W0.576
G1 X108.615 Y108.615 F7200
G1 X108.734 Y108.615 F7200
G1 X108.908 Y108.789 F7200
G1 Z0.336 F1002
G1 E0.2000 F3600
G92 E0
; tool H0.336 W0.889
G1 X109.004 Y108.765 E0.0120 F900
; tool H0.336 W0.852
G1 X109.100 Y108.752 E0.0233
; tool H0.336 W0.836
G1 X109.196 Y108.749 E0.0343
; tool H0.336 W0.833
G1 X190.804 Y108.749 E9.3446
; tool H0.336 W0.836
G1 X190.900 Y108.752 E9.3556
; tool H0.336 W0.852
G1 X190.996 Y108.765 E9.3669
; tool H0.336 W0.889
G1 X191.092 Y108.789 E9.3789
; tool H0.336 W0.913
G1 X191.211 Y108.908 E9.3999
; tool H0.336 W0.889
G1 X191.235 Y109.004 E9.4119
; tool H0.336 W0.852
G1 X191.248 Y109.100 E9.4232
; tool H0.336 W0.836
G1 X191.251 Y109.196 E9.4342
; tool H0.336 W0.833
G1 X191.251 Y190.804 E18.7442
; tool H0.336 W0.836
G1 X191.248 Y190.900 E18.7552
; tool H0.336 W0.852
G1 X191.235 Y190.996 E18.7665
; tool H0.336 W0.889
G1 X191.211 Y191.092 E18.7785
; tool H0.336 W0.913
